alura/assets/api/cursos/ui-devs-aprimorando-projetos-web-heuristicas.svg

<svg xmlns="http://www.w3.org/2000/svg" viewBox="0 0 50 50"><path fill="#46b8b0" d="M44.8 13.4l-5.6-3.6-7.7-4.4-6-2.8C22.3 2.6 4 11.5 4 14.7l-.5 7.8.5 15.1 11.2 5.8 31-11c.9-.5-.4-17-1.4-19z"/><path fill="#444" d="M38.7 35.3l-1.3-6.2h1.2l1.3 5.9m-8.5 3.5H11c-1 0-.6-1-.6-1v-.2l1.7-8h1.2l-1.5 6.8c-.2.7.4 1.4 1.1 1.4h19.6c.6 0 1.6 0 1.1.2m-18.4-4.9h1.2v1.1h-1.2v-1.1zm2.4 0h1.2v1.1h-1.2v-1.1zm2.3 0h1.2v1.1h-1.2v-1.1zm2.4 0h1.2v1.1h-1.2v-1.1zm2.3 0h1.2v1.1h-1.2v-1.1zm2.3 0h1.2v1.1h-1.2v-1.1zm-12.8 2.3h1.2v1.1h-1.2v-1.1zm2.3 0h1.2v1.1h-1.2v-1.1zm2.3 0h1.2v1.1h-1.2v-1.1zm2.4 0h1.2v1.1h-1.2v-1.1zm2.3 0h1.2v1.1h-1.2v-1.1zm2.4 0H27v1.1h-1.2v-1.1zm2.3 0h1.2v1.1h-1.2v-1.1zm2.3 0h1.2v1.1h-1.2v-1.1zm2.4 0H34v1.1h-1.2v-1.1zm2.3 0h1.2v1.1h-1.2v-1.1zm-5.8-2.3h1.2v1.1h-1.2v-1.1zm2.3 0h1.2v1.1h-1.2v-1.1zm2.4 0h1.2v1.1H34v-1.1zM25.3 22c2.5 0 5.1 1.6 7.6 4.9-2.3 3.3-4.8 5-7.6 5s-5.3-1.7-7.6-5c2.5-3.3 5.1-4.9 7.6-4.9zm0 1.1c-1.9 0-4 1.2-6.1 3.8 1.9 2.5 3.9 3.8 6.1 3.8h.1c2.2 0 4.2-1.2 6.1-3.8-2.2-2.5-4.2-3.8-6.2-3.8zm0 1.2c1.5 0 2.7 1.2 2.7 2.7s-1.2 2.7-2.7 2.7-2.7-1.2-2.7-2.7 1.2-2.7 2.7-2.7zm0 1.1c-.9 0-1.6.7-1.6 1.5 0 .9.7 1.5 1.6 1.5s1.6-.7 1.6-1.5-.7-1.5-1.6-1.5zm13.2-13v14.7c0 .5-.4.9-.9.9h-4.4l.5-.8c.2-.2.4-.4.7-.4h1.9c.5 0 .9-.4.9-.9v-1.1h-.7c-.6 1-1.8 1.3-2.8.7-1-.6-1.3-1.8-.8-2.8-.1-.2-.2-.3-.3-.5-.1-.2-.2-.3-.3-.5-1.1 0-2.1-.9-2.1-2s.9-2 2.1-2c.2-.4.4-.7.6-1-.6-1-.2-2.2.8-2.8 1-.6 2.3-.2 2.8.7h.6v-1c0-.5-.4-.9-.9-.9H14.1c-.5 0-.9.4-.9.9V26c0 .5.4.9.9.9H16c.3 0 .6.1.7.4l.5.8H13c-.5 0-.9-.4-.9-.9V12.4c0-.5.4-.9.9-.9h24.6c.5 0 .9.4.9.9zm-13.2 14c.3 0 .6.3.6.6s-.3.6-.6.6-.6-.3-.6-.6.3-.6.6-.6zm9.2-11.5c-.3.2-.5.5-.4.8 0 .1.1.2.1.4l.4.7c-.6.6-1 1.3-1.2 2.1h-.8c-.1 0-.3 0-.4.1-.3.1-.5.4-.5.8s.2.7.5.8c.1 0 .2.1.4.1h.8c.1.4.2.8.4 1.1.2.4.5.7.8.9l-.4.7c-.1.1-.1.2-.1.3 0 .3.1.7.4.9.3.2.7.1 1 0l.3-.3.4-.7c.4.1.8.2 1.2.2v-1.1c-1 0-2-.5-2.5-1.4-.8-1.4-.3-3.1 1.1-3.9.5-.3 1-.4 1.5-.4v-1.1c-.4 0-.8.1-1.2.2l-.4-.7-.3-.3c-.4-.4-.8-.4-1.1-.2zM18 21.2l.8.8-2.7 2.6-1.8-1.7.8-.8.9.9 2-1.8zm19.3.3V18c-.3 0-.6.1-.9.2-.8.5-1.1 1.5-.6 2.3.4.6.9 1 1.5 1zm-12.5-4.3v1.1H20v-1.1h4.8zM18 14.9l.8.8-2.7 2.6-1.8-1.7.8-.8.9.9 2-1.8zm10.4 0V16H20v-1.1h8.4z"/><path fill="none" stroke="#444" stroke-linecap="round" stroke-linejoin="round" stroke-miterlimit="10" stroke-width="2.5" d="M29.9 46.5l-2.2 1.3c-1.7 1-3.8 1-5.5 0l-15.6-9C5 37.8 3.9 36 3.9 34V16c0-2 1-3.8 2.7-4.7l15.6-9c1.7-1 3.8-1 5.5 0l15.6 9c1.7 1 2.7 2.8 2.7 4.7v18c0 2-1 3.8-2.7 4.7l-2.5 1.4"/></svg>

<?xml version="1.0" encoding="utf-8"?>
<!-- Generator: Adobe Illustrator 27.5.0, SVG Export Plug-In . SVG Version: 6.00 Build 0)  -->
<svg version="1.1" id="Camada_1" xmlns="http://www.w3.org/2000/svg" xmlns:xlink="http://www.w3.org/1999/xlink" x="0px" y="0px"
	 viewBox="0 0 50 50" style="enable-background:new 0 0 50 50;" xml:space="preserve">
<style type="text/css">
	.st0{fill:#46B8B0;}
	.st1{fill:#444444;}
	.st2{fill:none;stroke:#444444;stroke-width:2.5;stroke-linecap:round;stroke-linejoin:round;stroke-miterlimit:10;}
</style>
<path class="st0" d="M44.8,13.4l-5.6-3.6l-7.7-4.4l-6-2.8C22.3,2.6,4,11.5,4,14.7l-0.5,7.8L4,37.6l11.2,5.8l31-11
	C47.1,31.9,45.8,15.4,44.8,13.4z"/>
<path class="st1" d="M38.7,35.3l-1.3-6.2h1.2l1.3,5.9 M31.4,38.5c-6.4,0-14.4,0-20.4,0c-1,0-0.6-1-0.6-1c0-0.1,0-0.2,0-0.2l1.7-8
	h1.2l-1.5,6.8c-0.2,0.7,0.4,1.4,1.1,1.4c0,0,14,0,19.6,0c0.6,0,1.6,0,1.1,0.2 M15.2,32.8h1.2v1.1h-1.2V32.8z M17.6,32.8h1.2v1.1
	h-1.2V32.8z M19.9,32.8h1.2v1.1h-1.2V32.8z M22.3,32.8h1.2v1.1h-1.2V32.8z M24.6,32.8h1.2v1.1h-1.2V32.8z M26.9,32.8h1.2v1.1h-1.2
	V32.8z M14.1,35.1h1.2v1.1h-1.2V35.1z M16.4,35.1h1.2v1.1h-1.2V35.1z M18.7,35.1h1.2v1.1h-1.2V35.1z M21.1,35.1h1.2v1.1h-1.2V35.1z
	 M23.4,35.1h1.2v1.1h-1.2V35.1z M25.8,35.1h1.2v1.1h-1.2V35.1z M28.1,35.1h1.2v1.1h-1.2V35.1z M30.4,35.1h1.2v1.1h-1.2V35.1z
	 M32.8,35.1H34v1.1h-1.2V35.1z M35.1,35.1h1.2v1.1h-1.2V35.1z M29.3,32.8h1.2v1.1h-1.2V32.8z M31.6,32.8h1.2v1.1h-1.2V32.8z
	 M34,32.8h1.2v1.1H34V32.8z M25.3,22c2.5,0,5.1,1.6,7.6,4.9c-2.3,3.3-4.8,5-7.6,5s-5.3-1.7-7.6-5C20.2,23.6,22.8,22,25.3,22L25.3,22
	z M25.3,23.1c-1.9,0-4,1.2-6.1,3.8l0,0l0,0c1.9,2.5,3.9,3.8,6.1,3.8l0.1,0c2.2,0,4.2-1.2,6.1-3.8l0,0l0,0
	C29.3,24.4,27.3,23.1,25.3,23.1L25.3,23.1z M25.3,24.3c1.5,0,2.7,1.2,2.7,2.7s-1.2,2.7-2.7,2.7s-2.7-1.2-2.7-2.7
	S23.8,24.3,25.3,24.3L25.3,24.3z M25.3,25.4c-0.9,0-1.6,0.7-1.6,1.5c0,0.9,0.7,1.5,1.6,1.5s1.6-0.7,1.6-1.5
	C26.9,26.1,26.2,25.4,25.3,25.4z M38.5,12.4v14.7c0,0.5-0.4,0.9-0.9,0.9h-4.4l0.5-0.8c0.2-0.2,0.4-0.4,0.7-0.4h1.9
	c0.5,0,0.9-0.4,0.9-0.9v-1.1l-0.1,0c-0.2,0-0.3,0-0.5,0l-0.1,0c-0.6,1-1.8,1.3-2.8,0.7c-1-0.6-1.3-1.8-0.8-2.8l0,0
	c-0.1-0.2-0.2-0.3-0.3-0.5c-0.1-0.2-0.2-0.3-0.3-0.5l0,0l0,0c-1.1,0-2.1-0.9-2.1-2c0-1.1,0.9-2,2.1-2l0,0c0.2-0.4,0.4-0.7,0.6-1l0,0
	c-0.6-1-0.2-2.2,0.8-2.8c1-0.6,2.3-0.2,2.8,0.7l0,0c0.2,0,0.4,0,0.6,0v-1c0-0.5-0.4-0.9-0.9-0.9H14.1c-0.5,0-0.9,0.4-0.9,0.9V26
	c0,0.5,0.4,0.9,0.9,0.9H16c0.3,0,0.6,0.1,0.7,0.4l0.5,0.8H13c-0.5,0-0.9-0.4-0.9-0.9V12.4c0-0.5,0.4-0.9,0.9-0.9l24.6,0
	C38.1,11.5,38.5,11.9,38.5,12.4z M25.3,26.4c0.3,0,0.6,0.3,0.6,0.6s-0.3,0.6-0.6,0.6c-0.3,0-0.6-0.3-0.6-0.6S25,26.4,25.3,26.4z
	 M34.5,14.9c-0.3,0.2-0.5,0.5-0.4,0.8l0,0c0,0.1,0.1,0.2,0.1,0.4l0.4,0.7c-0.6,0.6-1,1.3-1.2,2.1l-0.8,0c-0.1,0-0.3,0-0.4,0.1
	c-0.3,0.1-0.5,0.4-0.5,0.8c0,0.4,0.2,0.7,0.5,0.8c0.1,0,0.2,0.1,0.4,0.1l0.8,0c0.1,0.4,0.2,0.8,0.4,1.1c0.2,0.4,0.5,0.7,0.8,0.9
	l-0.4,0.7c-0.1,0.1-0.1,0.2-0.1,0.3l0,0c0,0.3,0.1,0.7,0.4,0.9c0.3,0.2,0.7,0.1,1,0c0.1-0.1,0.2-0.2,0.3-0.3l0.4-0.7
	c0.4,0.1,0.8,0.2,1.2,0.2v-1.1l0,0c-1,0-2-0.5-2.5-1.4c-0.8-1.4-0.3-3.1,1.1-3.9c0.5-0.3,1-0.4,1.5-0.4v-1.1l0,0
	c-0.4,0-0.8,0.1-1.2,0.2l-0.4-0.7c-0.1-0.1-0.2-0.2-0.3-0.3l0,0C35.2,14.7,34.8,14.7,34.5,14.9L34.5,14.9z M18,21.2l0.8,0.8
	l-2.7,2.6l-1.8-1.7l0.8-0.8l0.9,0.9L18,21.2z M37.3,21.5V18l0,0c-0.3,0-0.6,0.1-0.9,0.2c-0.8,0.5-1.1,1.5-0.6,2.3
	C36.2,21.1,36.7,21.5,37.3,21.5L37.3,21.5z M24.8,17.2v1.1H20v-1.1H24.8z M18,14.9l0.8,0.8l-2.7,2.6l-1.8-1.7l0.8-0.8l0.9,0.9
	L18,14.9z M28.4,14.9v1.1H20v-1.1H28.4z"/>
<g>
	<g>
		<path class="st2" d="M29.9,46.5l-2.2,1.3c-1.7,1-3.8,1-5.5,0l-15.6-9C5,37.8,3.9,36,3.9,34V16c0-2,1-3.8,2.7-4.7l15.6-9
			c1.7-1,3.8-1,5.5,0l15.6,9c1.7,1,2.7,2.8,2.7,4.7v18c0,2-1,3.8-2.7,4.7l-2.5,1.4"/>
	</g>
</g>
</svg>
